_includes/icons/ios-bank-building.svg

<svg fill="#666" height="50" viewBox="0 0 50 50" width="50" xmlns="http://www.w3.org/2000/svg"><path d="m25.037109 2a1.0001 1.0001 0 0 0 -.460937.09375l-22.0000001 10.300781a1.0001 1.0001 0 0 0 -.5761719.90625v2.699219a1.0001 1.0001 0 0 0 1 1h3v23h-1.1992188c-1.5999999 0-2.8007812 1.415152-2.8007812 3v3h46v-3c0-1.584848-1.200781-3-2.800781-3h-1.199219v-23h3a1.0001 1.0001 0 0 0 1-1v-2.699219a1.0001 1.0001 0 0 0 -.576172-.90625l-22-10.300781a1.0001 1.0001 0 0 0 -.386719-.09375zm-.037109 2.1035156 21 9.8320314v1.064453h-9a1.0001 1.0001 0 1 0 0 2h1v23h-26v-23h1a1.0001 1.0001 0 1 0 0-2h-2-4-3v-1.064453zm-1 6.8964844v3.060547c-2.135425.25677-3.490598 1.318356-4.181641 2.402344-.793573 1.244821-.818359 2.511718-.818359 2.511718a1.0001 1.0001 0 0 0 0 .025391c0 1.777778.85529 3.119015 1.988281 3.912109 1.132992.793094 2.47461 1.169922 3.72461 1.544922s2.408382.748172 3.15039 1.267578c.742009.519406 1.136719 1.053169 1.136719 2.275391 0 .821748-.225315 1.320619-.552734 1.716797-.32742.396178-.796064.688023-1.310547.888672-1.028967.401297-2.117188.394531-2.117188.394531a1.0001 1.0001 0 0 0 -.019531 0c-2.223203 0-3.021811-.935656-3.513672-1.939453-.49186-1.003797-.486328-2.041016-.486328-2.041016l-2-.039062s-.04369 1.462781.689453 2.958984c.643496 1.313258 2.034975 2.674289 4.310547 2.988281v3.072266h2v-3.072266c.520984-.065968 1.178107-.191768 1.863281-.458984.735517-.286851 1.516873-.738366 2.126953-1.476562.610081-.7382 1.009766-1.763936 1.009766-2.992188 0-1.777778-.85529-3.119015-1.988281-3.912109-1.132992-.793094-2.47461-1.169922-3.72461-1.544922s-2.408382-.748172-3.15039-1.267578c-.737833-.516484-1.128406-1.052114-1.132813-2.259766.000346-.0097.02374-.728383.501953-1.478516.481427-.755179 1.31625-1.537109 3.494141-1.537109 2.109864 0 2.927545.936017 3.447266 1.955078s.552734 2.064453.552734 2.064453l2-.039062s-.0162-1.454608-.771484-2.935547c-.660236-1.294582-2.030559-2.65137-4.228516-2.972656v-3.072266zm-16 6h2v23h-2zm32 0h2v23h-2zm-35.1992188 25h40.3984378c.4 0 .800781.384848.800781 1v1h-42v-1c0-.615152.4007812-1 .8007812-1z"/></svg>

<svg xmlns="http://www.w3.org/2000/svg" viewBox="0 0 50 50" width="50" height="50" fill="#666"><path style="line-height:normal;text-indent:0;text-align:start;text-decoration-line:none;text-decoration-style:solid;text-decoration-color:#000;text-transform:none;block-progression:tb;isolation:auto;mix-blend-mode:normal" d="M 25.037109 2 A 1.0001 1.0001 0 0 0 24.576172 2.09375 L 2.5761719 12.394531 A 1.0001 1.0001 0 0 0 2 13.300781 L 2 16 A 1.0001 1.0001 0 0 0 3 17 L 6 17 L 6 40 L 4.8007812 40 C 3.2007813 40 2 41.415152 2 43 L 2 46 L 48 46 L 48 43 C 48 41.415152 46.799219 40 45.199219 40 L 44 40 L 44 17 L 47 17 A 1.0001 1.0001 0 0 0 48 16 L 48 13.300781 A 1.0001 1.0001 0 0 0 47.423828 12.394531 L 25.423828 2.09375 A 1.0001 1.0001 0 0 0 25.037109 2 z M 25 4.1035156 L 46 13.935547 L 46 15 L 37 15 A 1.0001 1.0001 0 1 0 37 17 L 38 17 L 38 40 L 12 40 L 12 17 L 13 17 A 1.0001 1.0001 0 1 0 13 15 L 11 15 L 7 15 L 4 15 L 4 13.935547 L 25 4.1035156 z M 24 11 L 24 14.060547 C 21.864575 14.317317 20.509402 15.378903 19.818359 16.462891 C 19.024786 17.707712 19 18.974609 19 18.974609 A 1.0001 1.0001 0 0 0 19 19 C 19 20.777778 19.85529 22.119015 20.988281 22.912109 C 22.121273 23.705203 23.462891 24.082031 24.712891 24.457031 C 25.962891 24.832031 27.121273 25.205203 27.863281 25.724609 C 28.60529 26.244015 29 26.777778 29 28 C 29 28.821748 28.774685 29.320619 28.447266 29.716797 C 28.119846 30.112975 27.651202 30.40482 27.136719 30.605469 C 26.107752 31.006766 25.019531 31 25.019531 31 A 1.0001 1.0001 0 0 0 25 31 C 22.776797 31 21.978189 30.064344 21.486328 29.060547 C 20.994468 28.05675 21 27.019531 21 27.019531 L 19 26.980469 C 19 26.980469 18.95631 28.44325 19.689453 29.939453 C 20.332949 31.252711 21.724428 32.613742 24 32.927734 L 24 36 L 26 36 L 26 32.927734 C 26.520984 32.861766 27.178107 32.735966 27.863281 32.46875 C 28.598798 32.181899 29.380154 31.730384 29.990234 30.992188 C 30.600315 30.253988 31 29.228252 31 28 C 31 26.222222 30.14471 24.880985 29.011719 24.087891 C 27.878727 23.294797 26.537109 22.917969 25.287109 22.542969 C 24.037109 22.167969 22.878727 21.794797 22.136719 21.275391 C 21.398886 20.758907 21.008313 20.223277 21.003906 19.015625 C 21.004252 19.005925 21.027646 18.287242 21.505859 17.537109 C 21.987286 16.78193 22.822109 16 25 16 C 27.109864 16 27.927545 16.936017 28.447266 17.955078 C 28.966987 18.974139 29 20.019531 29 20.019531 L 31 19.980469 C 31 19.980469 30.9838 18.525861 30.228516 17.044922 C 29.56828 15.75034 28.197957 14.393552 26 14.072266 L 26 11 L 24 11 z M 8 17 L 10 17 L 10 40 L 8 40 L 8 17 z M 40 17 L 42 17 L 42 40 L 40 40 L 40 17 z M 4.8007812 42 L 45.199219 42 C 45.599219 42 46 42.384848 46 43 L 46 44 L 4 44 L 4 43 C 4 42.384848 4.4007812 42 4.8007812 42 z"/></svg>
